assets/logos/skype.svg

<svg width="80" height="80" viewBox="0 0 80 80" fill="none" xmlns="http://www.w3.org/2000/svg">
<rect x="22.8439" y="21.3506" width="35.6228" height="41.5324" fill="white"/>
<path fill-rule="evenodd" clip-rule="evenodd" d="M52.4658 52.4999C51.3429 54.0956 49.6981 55.3493 47.5321 56.2496C45.3675 57.1584 42.8011 57.6092 39.8329 57.6092C36.2731 57.6092 33.339 56.992 31.0244 55.7561C29.3874 54.8672 28.0533 53.6775 27.0272 52.1934C26.0039 50.7108 25.4912 49.2658 25.4912 47.8613C25.4912 47.0492 25.7977 46.3516 26.4128 45.7735C27.0272 45.1897 27.8116 44.9003 28.7616 44.9003C29.5324 44.9003 30.1867 45.125 30.7179 45.5801C31.2526 46.0331 31.7077 46.7008 32.0825 47.5918C32.5433 48.6464 33.0382 49.5296 33.573 50.2364C34.1042 50.9454 34.8565 51.5314 35.8208 51.99C36.79 52.4473 38.0622 52.6798 39.6359 52.6798C41.7998 52.6798 43.5598 52.219 44.9131 51.2889C46.2649 50.3652 46.9447 49.2053 46.9447 47.818C46.9447 46.7186 46.5778 45.8226 45.8489 45.1406C45.1179 44.453 44.1749 43.9296 43.0187 43.5684C41.8624 43.205 40.3172 42.8203 38.3801 42.4142C35.7888 41.8596 33.6199 41.2032 31.8748 40.4587C30.1291 39.7113 28.741 38.6951 27.7177 37.4066C26.6916 36.1152 26.1803 34.5138 26.1803 32.6016C26.1803 30.7755 26.7193 29.1563 27.8044 27.7404C28.886 26.3225 30.4505 25.2324 32.5035 24.4708C34.5536 23.7092 36.9636 23.3301 39.7355 23.3301C41.9484 23.3301 43.8642 23.584 45.4791 24.086C47.094 24.5916 48.4324 25.2636 49.499 26.0999C50.5657 26.9376 51.3465 27.8144 51.8364 28.7346C52.3292 29.6505 52.5753 30.5529 52.5753 31.4219C52.5753 32.2204 52.2688 32.9451 51.653 33.5836C51.0393 34.2244 50.2727 34.5472 49.3547 34.5472C48.5156 34.5472 47.8798 34.3531 47.446 33.9684C47.0116 33.5836 46.5387 32.955 46.0324 32.0804C45.3753 30.8302 44.5909 29.8532 43.6686 29.1541C42.7499 28.4508 41.2764 28.1017 39.2412 28.1017C37.3582 28.1017 35.8357 28.4786 34.6795 29.2423C33.5225 30.0018 32.9444 30.9198 32.9444 31.99C32.9444 32.65 33.1435 33.2267 33.536 33.7088C33.9264 34.1931 34.4697 34.6034 35.1602 34.9511C35.8464 35.2967 36.544 35.5684 37.2487 35.7675C37.9541 35.963 39.1182 36.2482 40.7452 36.6251C42.7762 37.0624 44.6158 37.5467 46.2649 38.0722C47.9132 38.6012 49.3156 39.242 50.4718 39.9922C51.6281 40.7481 52.5312 41.7031 53.1783 42.8572C53.8254 44.0078 54.1511 45.4222 54.1511 47.0955C54.1511 49.0994 53.5865 50.9006 52.4658 52.4999ZM67.6836 40.0761C67.6836 24.32 54.9099 11.547 39.1531 11.547C37.6796 11.547 36.2446 11.6892 34.8309 11.9061C31.9872 9.4784 28.3036 8 24.2695 8C15.286 8 8 15.2832 8 24.2716C8 27.9374 9.22951 31.3102 11.2782 34.0309C10.8594 35.9822 10.624 37.9996 10.624 40.0761C10.624 55.8357 23.3948 68.6094 39.1531 68.6094C41.1783 68.6094 43.1524 68.3883 45.0574 67.9865C47.9147 70.4825 51.6437 72 55.7305 72C64.7161 72 72 64.7168 72 55.7326C72 51.2889 70.218 47.2676 67.3287 44.3342C67.5392 42.9376 67.6836 41.5253 67.6836 40.0761Z" fill="#00AFF0"/>
</svg>

<svg xmlns="http://www.w3.org/2000/svg" width="80" height="80" fill="none" viewBox="0 0 80 80"><path fill="#fff" d="M22.844 21.351h35.623v41.532H22.844z"/><path fill="#00aff0" fill-rule="evenodd" d="M52.466 52.5c-1.123 1.596-2.768 2.85-4.934 3.75q-3.246 1.361-7.7 1.36-5.337 0-8.808-1.854-2.456-1.335-3.997-3.563-1.535-2.224-1.536-4.332 0-1.22.922-2.087.922-.875 2.349-.874c.77 0 1.425.225 1.956.68.535.453.99 1.12 1.365 2.012q.689 1.583 1.49 2.644c.531.71 1.283 1.295 2.248 1.754.969.457 2.241.69 3.815.69q3.247.002 5.277-1.391c1.352-.924 2.032-2.084 2.032-3.471q-.001-1.652-1.096-2.677-1.096-1.031-2.83-1.573-1.735-.545-4.639-1.154c-2.591-.554-4.76-1.21-6.505-1.955q-2.62-1.121-4.157-3.052-1.538-1.937-1.538-4.805-.001-2.739 1.624-4.862 1.622-2.126 4.7-3.27 3.075-1.14 7.232-1.14 3.32.002 5.743.756 2.421.76 4.02 2.014 1.601 1.255 2.337 2.635c.493.916.74 1.818.74 2.687 0 .798-.307 1.523-.923 2.162q-.921.962-2.298.963-1.259 0-1.909-.579-.652-.576-1.414-1.888c-.657-1.25-1.441-2.227-2.363-2.926-.92-.703-2.393-1.052-4.428-1.052-1.883 0-3.405.377-4.562 1.14q-1.735 1.142-1.735 2.748c0 .66.2 1.237.592 1.719.39.484.934.894 1.624 1.242q1.03.518 2.089.816 1.057.293 3.496.858 3.046.657 5.52 1.447 2.472.795 4.207 1.92 1.736 1.134 2.706 2.865.972 1.726.973 4.239c0 2.003-.565 3.805-1.685 5.404m15.218-12.424c0-15.756-12.774-28.529-28.53-28.529-1.474 0-2.91.142-4.323.36A16.2 16.2 0 0 0 24.269 8C15.287 8 8 15.283 8 24.272c0 3.665 1.23 7.038 3.278 9.759a28.8 28.8 0 0 0-.654 6.045c0 15.76 12.77 28.533 28.53 28.533 2.024 0 3.998-.22 5.903-.622A16.17 16.17 0 0 0 55.73 72C64.717 72 72 64.717 72 55.733c0-4.444-1.782-8.465-4.671-11.399.21-1.396.355-2.809.355-4.258" clip-rule="evenodd"/></svg>
